images/comment.svg

<svg width="24" height="25" viewBox="0 0 24 25" fill="none" xmlns="http://www.w3.org/2000/svg">
<g clip-path="url(#clip0_1225_3219)">
<path d="M12 1.75C5.37188 1.75 -1.78278e-06 6.11406 -1.78278e-06 11.5C-1.78278e-06 13.7312 0.932811 15.775 2.47969 17.4203C1.78125 19.2672 0.328123 20.8328 0.304686 20.8516C-0.00468928 21.1797 -0.0890643 21.6578 0.0890607 22.0703C0.267186 22.4828 0.674998 22.75 1.125 22.75C4.00781 22.75 6.28125 21.5453 7.64531 20.5797C9 21.0063 10.4625 21.25 12 21.25C18.6281 21.25 24 16.8859 24 11.5C24 6.11406 18.6281 1.75 12 1.75ZM12 19C10.7484 19 9.51094 18.8078 8.325 18.4328L7.26094 18.0953L6.34687 18.7422C5.67656 19.2156 4.75781 19.7453 3.65156 20.1016C3.99375 19.5344 4.32656 18.8969 4.58437 18.2172L5.08125 16.9L4.11562 15.8781C3.26719 14.9734 2.25 13.4781 2.25 11.5C2.25 7.36563 6.62344 4 12 4C17.3766 4 21.75 7.36563 21.75 11.5C21.75 15.6344 17.3766 19 12 19Z" fill="black" fill-opacity="0.53"/>
</g>
<defs>
<clipPath id="clip0_1225_3219">
<rect width="24" height="24" fill="white" transform="translate(0 0.25)"/>
</clipPath>
</defs>
</svg>

<svg width="24" height="25" fill="none" xmlns="http://www.w3.org/2000/svg"><g clip-path="url(#a)"><path d="M12 1.75c-6.628 0-12 4.364-12 9.75 0 2.231.933 4.275 2.48 5.92C1.78 19.267.328 20.833.305 20.852a1.125 1.125 0 0 0 .82 1.898c2.883 0 5.156-1.205 6.52-2.17 1.355.426 2.818.67 4.355.67 6.628 0 12-4.364 12-9.75s-5.372-9.75-12-9.75ZM12 19a12.18 12.18 0 0 1-3.675-.567l-1.064-.338-.914.647c-.67.474-1.59 1.003-2.695 1.36.342-.568.675-1.205.932-1.885l.497-1.317-.965-1.022c-.849-.905-1.866-2.4-1.866-4.378C2.25 7.366 6.623 4 12 4s9.75 3.366 9.75 7.5S17.377 19 12 19Z" fill="#000" fill-opacity=".53"/></g><defs><clipPath id="a"><path fill="#fff" transform="translate(0 .25)" d="M0 0h24v24H0z"/></clipPath></defs></svg>
